assets/svg/google_icon.svg

<svg fill="none" height="24" viewBox="0 0 24 24" width="24" xmlns="http://www.w3.org/2000/svg"><path d="m5.42014 14.4651-.82275 3.0714-3.00713.0636c-.898689-1.6668-1.40844-3.5739-1.40844-5.6006 0-1.9597.476605-3.80779 1.32142-5.43505h.00065l2.67718.49083 1.17277 2.66112c-.24545.7156-.37924 1.4838-.37924 2.2831.00009.8676.15724 1.6987.44554 2.4656z" fill="#fbbb00"/><path d="m23.6117 9.79199c.1357.71491.2065 1.45321.2065 2.20781 0 .8461-.089 1.6714-.2584 2.4675-.5753 2.7091-2.0786 5.0747-4.1611 6.7487l-.0006-.0006-3.3721-.1721-.4772-2.9792c1.3818-.8104 2.4617-2.0786 3.0305-3.5968h-6.3195v-4.67531h6.4117z" fill="#518ef8"/><path d="m19.3981 21.2158.0006.0006c-2.0253 1.628-4.5981 2.602-7.3987 2.602-4.50063 0-8.4136-2.5156-10.40972-6.2175l3.82987-3.1351c.99804 2.6636 3.56752 4.5598 6.57985 4.5598 1.2948 0 2.5078-.3501 3.5487-.9611z" fill="#28b446"/><path d="m19.5436 2.90241-3.8286 3.1344c-1.0773-.67336-2.3507-1.06234-3.7149-1.06234-3.08058 0-5.69812 1.9831-6.64616 4.74223l-3.85001-3.15195h-.00064c1.96689-3.7922 5.92922-6.383109 10.49681-6.383109 2.8675 0 5.4967 1.021439 7.5435 2.720769z" fill="#f14336"/></svg>

<svg width="24" height="24" viewBox="0 0 24 24" fill="none" xmlns="http://www.w3.org/2000/svg">
<path d="M5.42014 14.4651L4.59739 17.5365L1.59026 17.6001C0.691571 15.9333 0.18182 14.0262 0.18182 11.9995C0.18182 10.0398 0.658425 8.19171 1.50324 6.56445H1.50389L4.18107 7.05528L5.35384 9.7164C5.10839 10.432 4.9746 11.2002 4.9746 11.9995C4.97469 12.8671 5.13184 13.6982 5.42014 14.4651Z" fill="#FBBB00"/>
<path d="M23.6117 9.79199C23.7474 10.5069 23.8182 11.2452 23.8182 11.9998C23.8182 12.8459 23.7292 13.6712 23.5598 14.4673C22.9845 17.1764 21.4812 19.542 19.3987 21.216L19.3981 21.2154L16.026 21.0433L15.5488 18.0641C16.9306 17.2537 18.0105 15.9855 18.5793 14.4673H12.2598V9.79199H18.6715H23.6117Z" fill="#518EF8"/>
<path d="M19.3981 21.2158L19.3987 21.2164C17.3734 22.8444 14.8006 23.8184 12 23.8184C7.49937 23.8184 3.5864 21.3028 1.59028 17.6009L5.42015 14.4658C6.41819 17.1294 8.98767 19.0256 12 19.0256C13.2948 19.0256 14.5078 18.6755 15.5487 18.0645L19.3981 21.2158Z" fill="#28B446"/>
<path d="M19.5436 2.90241L15.715 6.03681C14.6377 5.36345 13.3643 4.97447 12.0001 4.97447C8.91952 4.97447 6.30198 6.95757 5.35394 9.7167L1.50393 6.56475H1.50329C3.47018 2.77255 7.43251 0.181641 12.0001 0.181641C14.8676 0.181641 17.4968 1.20308 19.5436 2.90241Z" fill="#F14336"/>
</svg>
